X: 1
T: Ruder Es
T: Ace of Diamonds
O: Randersegnen, Denmark
M: 2/4
L: 1/8
K: F
|:"F"f2 cd/c/ | AA AB/A/ | "C7"GG GA/G/ |1 "F"FF F2 :|2 "F"F3 ||
|| F \
| "F"A3 B | c3 d | "C7"cB Bc | "F"BA AF \
| "F"A3 B | c3 f | "C7"e>e ee | "F"f2 z ||
|: f \
| "Bb"d>d f>d | "F"dc cc | "C7"ee ee |1,3 "F"gf f :|2,4 "F"f2 z :|
